svg/icon/dtr.svg

<svg xmlns="http://www.w3.org/2000/svg" xmlns:xlink="http://www.w3.org/1999/xlink" width="32" height="32" viewBox="0 0 32 32"><defs><linearGradient id="dtr-c" x1="50%" x2="50%" y1="0%" y2="100%"><stop offset="0%" stop-color="#FFF" stop-opacity=".5"/><stop offset="100%" stop-opacity=".5"/></linearGradient><circle id="dtr-b" cx="16" cy="15" r="15"/><filter id="dtr-a" width="111.7%" height="111.7%" x="-5.8%" y="-4.2%" filterUnits="objectBoundingBox"><feOffset dy=".5" in="SourceAlpha" result="shadowOffsetOuter1"/><feGaussianBlur in="shadowOffsetOuter1" result="shadowBlurOuter1" stdDeviation=".5"/><feComposite in="shadowBlurOuter1" in2="SourceAlpha" operator="out" result="shadowBlurOuter1"/><feColorMatrix in="shadowBlurOuter1" values="0 0 0 0 0 0 0 0 0 0 0 0 0 0 0 0 0 0 0.199473505 0"/></filter><filter id="dtr-d" width="119.4%" height="119.4%" x="-9.7%" y="-6.9%" filterUnits="objectBoundingBox"><feOffset dy=".5" in="SourceAlpha" result="shadowOffsetOuter1"/><feGaussianBlur in="shadowOffsetOuter1" result="shadowBlurOuter1" stdDeviation=".5"/><feColorMatrix in="shadowBlurOuter1" result="shadowMatrixOuter1" values="0 0 0 0 0 0 0 0 0 0 0 0 0 0 0 0 0 0 0.204257246 0"/><feMerge><feMergeNode in="shadowMatrixOuter1"/><feMergeNode in="SourceGraphic"/></feMerge></filter></defs><g fill="none" fill-rule="evenodd"><use fill="#000" filter="url(#dtr-a)" xlink:href="#dtr-b"/><use fill="#121747" xlink:href="#dtr-b"/><use fill="url(#dtr-c)" style="mix-blend-mode:soft-light" xlink:href="#dtr-b"/><circle cx="16" cy="15" r="14.5" stroke="#000" stroke-opacity=".097"/><g fill="#FFF" fill-rule="nonzero" filter="url(#dtr-d)" transform="translate(7 6)"><path d="M11.0316667,15.8691589 C11.0316667,17.0150207 10.1113631,17.9439252 8.97611111,17.9439252 C7.84085913,17.9439252 6.92055556,17.0150207 6.92055556,15.8691589 L6.92055556,2.07981308 C6.92055556,0.933951267 7.84085913,0.00504672897 8.97611111,0.00504672897 C10.1113631,0.00504672897 11.0316667,0.933951267 11.0316667,2.07981308 L11.0316667,15.8691589 Z M4.11111111,15.8753271 C4.12329501,16.6219799 3.73562447,17.3172388 3.09694493,17.6941604 C2.4582654,18.071082 1.66784571,18.071082 1.02916618,17.6941604 C0.390486644,17.3172388 0.00281610068,16.6219799 0.015,15.8753271 L0.015,12.7743925 C0.00281610068,12.0277398 0.390486644,11.3324808 1.02916618,10.9555593 C1.66784571,10.5786377 2.4582654,10.5786377 3.09694493,10.9555593 C3.73562447,11.3324808 4.12329501,12.0277398 4.11111111,12.7743925 L4.11111111,15.8753271 Z"/><path d="M17.9555556,10.3990654 C17.9555556,11.5449272 17.035252,12.4738318 15.9,12.4738318 C14.764748,12.4738318 13.8444444,11.5449272 13.8444444,10.3990654 L13.8444444,5.16560748 C13.8444444,4.01974566 14.764748,3.09084112 15.9,3.09084112 C17.035252,3.09084112 17.9555556,4.01974566 17.9555556,5.16560748 L17.9555556,10.3990654 Z" opacity=".5"/></g></g></svg>

<svg xmlns="http://www.w3.org/2000/svg" xmlns:xlink="http://www.w3.org/1999/xlink" width="32" height="32" viewBox="0 0 32 32"><defs><linearGradient id="c" x1="50%" x2="50%" y1="0%" y2="100%"><stop offset="0%" stop-color="#FFF" stop-opacity=".5"/><stop offset="100%" stop-opacity=".5"/></linearGradient><circle id="b" cx="16" cy="15" r="15"/><filter id="a" width="111.7%" height="111.7%" x="-5.8%" y="-4.2%" filterUnits="objectBoundingBox"><feOffset dy=".5" in="SourceAlpha" result="shadowOffsetOuter1"/><feGaussianBlur in="shadowOffsetOuter1" result="shadowBlurOuter1" stdDeviation=".5"/><feComposite in="shadowBlurOuter1" in2="SourceAlpha" operator="out" result="shadowBlurOuter1"/><feColorMatrix in="shadowBlurOuter1" values="0 0 0 0 0 0 0 0 0 0 0 0 0 0 0 0 0 0 0.199473505 0"/></filter><filter id="d" width="119.4%" height="119.4%" x="-9.7%" y="-6.9%" filterUnits="objectBoundingBox"><feOffset dy=".5" in="SourceAlpha" result="shadowOffsetOuter1"/><feGaussianBlur in="shadowOffsetOuter1" result="shadowBlurOuter1" stdDeviation=".5"/><feColorMatrix in="shadowBlurOuter1" result="shadowMatrixOuter1" values="0 0 0 0 0 0 0 0 0 0 0 0 0 0 0 0 0 0 0.204257246 0"/><feMerge><feMergeNode in="shadowMatrixOuter1"/><feMergeNode in="SourceGraphic"/></feMerge></filter></defs><g fill="none" fill-rule="evenodd"><use fill="#000" filter="url(#a)" xlink:href="#b"/><use fill="#121747" xlink:href="#b"/><use fill="url(#c)" style="mix-blend-mode:soft-light" xlink:href="#b"/><circle cx="16" cy="15" r="14.5" stroke="#000" stroke-opacity=".097"/><g fill="#FFF" fill-rule="nonzero" filter="url(#d)" transform="translate(7 6)"><path d="M11.032 15.87c0 1.145-.92 2.074-2.056 2.074a2.065 2.065 0 0 1-2.055-2.075V2.08A2.064 2.064 0 0 1 8.976.006c1.135 0 2.056.929 2.056 2.075v13.79zm-6.92.005a2.072 2.072 0 0 1-1.015 1.82 2.032 2.032 0 0 1-2.068 0 2.072 2.072 0 0 1-1.014-1.82v-3.1a2.072 2.072 0 0 1 1.014-1.82 2.032 2.032 0 0 1 2.068 0 2.072 2.072 0 0 1 1.014 1.82v3.1z"/><path d="M17.956 10.4c0 1.145-.92 2.074-2.056 2.074a2.065 2.065 0 0 1-2.056-2.075V5.166c0-1.146.92-2.075 2.056-2.075 1.135 0 2.056.929 2.056 2.075v5.233z" opacity=".5"/></g></g></svg>
